X: 39
T: 3 AM In Edradour
R: reel
M: 4/4
K: Adorian
|:aaag eddd|edgd eddd|eaag eddd|edgG BAAB|
eaag eddd|edgd eddd|GGGA BBAB|ddgG BAAB:|
|:AAAB AGAB|AAAB edgB|AAAB AGAB|dddB GBdB|
AAAB AGAB|AAAB edef|fgaf gedG|B2 gG BAAB:|
|:GAAG BBGd-|dGdB deee|GAAG BBGd-|dGdG dBBA|
GAAG BBGd-|dGdB deee|dBAB d4-|dedB deee:|

